!!!COM: Schiørring, Niels
!!!CDT: 1743-1798
!!!OPR@@DA: Choral-Bog
!!!ONM: 83
!!!OTL@@DA: D Jeſu! for din Pine
**kern	**kern	**kern	**kern	**kern	**kern	**fb	**kern	**kern
*part6	*part5	*part6	*part5	*part4	*part3	*part3	*part2	*part1
*staff8	*staff6	*staff7	*staff5	*staff4	*staff3	*	*staff2	*staff1
*clefF4	*clefF4	*clefC1	*clefC1	*clefF4	*clefC4	*	*clefC3	*clefC1
*k[b-]	*k[b-]	*k[b-]	*k[b-]	*k[b-]	*k[b-]	*	*k[b-]	*k[b-]
*F:	*F:	*F:	*F:	*F:	*F:	*	*F:	*F:
*M3/2	*M3/2	*M3/2	*M3/2	*M3/2	*M3/2	*	*M3/2	*M3/2
*	*^	*	*^	*	*	*	*	*
2G	2B-	2G	2g	2g	2d	2G	2b-	.	2d	2g
=1	=1	=1	=1	=1	=1	=1	=1	=1	=1	=1
1B-	1d	1B-	1g	1g	1d	1B-	1dd	.	1d	1g
2F#X	2A	2F#X	2a	2a	2d	2F#X	2a	.	2d	2a
=2	=2	=2	=2	=2	=2	=2	=2	=2	=2	=2
1G	1G	1G	1b-	1b-	1d	1G	1g	.	1d	1b-
2C	2G	2C	2cc	2cc	2e-X	2C	2g	.	2e-X	2cc
=3	=3	=3	=3	=3	=3	=3	=3	=3	=3	=3
1.D	1G	1.D	1.a	1.a	1.d	1.D	(1g	.	1.d	1.a
.	4ryy	.	.	.	.	.	4cc)	#	.	.
=4	=4	=4	=4	=4	=4	=4	=4	=4	=4	=4
*	*	*	*	*	*^	*	*	*	*	*
1GG	1G	1GG	1g	1g	1d	1B-\	1GG	1b-	.	1d	1g
*	*	*	*	*	*v	*v	*	*	*	*	*
2BB-	2ryy	2BB-	2dd	2fni	2b-	2BB-	2ffni	.	2d	2dd
=5	=5	=5	=5	=5	=5	=5	=5	=5	=5	=5
1.C	1.ryy	1C	1dd	1e	1g	1C	1ee	.	1g	1dd
.	.	2C	2cc	2e	2g	2C	2ee	.	2g	2cc
=6	=6	=6	=6	=6	=6	=6	=6	=6	=6	=6
1D	1d	1D	1b-	1b-	1f	1D	1dd	.	1f	1b-
2E	2c	2E	2g	2g	2g	2E	2cc	.	2g	2g
=7	=7	=7	=7	=7	=7	=7	=7	=7	=7	=7
1F	1c	1F	1a	1a	1f	1F	1cc	.	1f	1a
2c	2ryy	2c	2a	2d	2f#X	2c	2dd	.	2f#X	2a
=8	=8	=8	=8	=8	=8	=8	=8	=8	=8	=8
1B-	1.ryy	1B-	1dd	1d	1g	1B-	1dd	.	1g	1dd
2A	.	2A	2cc	2d	2f#X	2A	2dd	.	2f#X	2cc
=9	=9	=9	=9	=9	=9	=9	=9	=9	=9	=9
1G	1.ryy	1G	1b-	1d	1g	1G	1dd	.	1g	1b-
2C	.	2C	2cc	2e	2g	2C	2ee	.	2g	2cc
=10	=10	=10	=10	=10	=10	=10	=10	=10	=10	=10
1C#X	1.A	1C#X	1.a	1.a	1e	(1C#X	(1ee	.	1.e	1.a
2AA	.	2AA	.	.	2c#X	2AA)	2cc#X)	.	.	.
=11	=11	=11	=11	=11	=11	=11	=11	=11	=11	=11
1D	1A	1D	1f	1f	1d	1D	1a	.	1d	1f
2BB-	2G	2BB-	2g	2g	2d	2BB-	2dd	.	2d	2g
=12	=12	=12	=12	=12	=12	=12	=12	=12	=12	=12
1GG	1G	1GG	1b-	1b-	1d	1GG	1dd	.	1g	1b-
2E-X	2G	2E-X	2b-	2b-	2e-X	2E-X	2ee-X	.	2g	2b-
=13	=13	=13	=13	=13	=13	=13	=13	=13	=13	=13
1C	1G	1C	1cc	1cc	1e-X	1C	1ee-X	.	1g	1cc
2D	2F#X	2D	2a	2a	2d	2D	2dd	.	2f#X	2a
=14	=14	=14	=14	=14	=14	=14	=14	=14	=14	=14
*	*	*	*	*	*^	*	*	*	*	*
1GG	1G	1GG	1g	1g	1d	1B-\	1GG	1b-	.	1g	1g
*	*v	*v	*	*	*	*	*	*	*	*	*
*	*	*	*v	*v	*v	*	*	*	*	*
==	==	==	==	==	==	==	==	==
*-	*-	*-	*-	*-	*-	*-	*-	*-
!!!system-decoration: {(s1,s2,s3,s4)}{(s5,s6)}{(s7,s8)}
!!!RDF**kern: i = editorial accidental
!!!RDF**kern: > = above
!!!RDF**kern: < = below
!!!AGN: chorale
!!!EED: Derek Remeš
!!!EED2: Victor Phan
!!!END: 2023/11/28
!!!ENC: Wolfgang Drescher
!!!EEV: 2023/11/29
!!!title: @{ONM}. @{OTL}